Gruvbox-Plus-Dark/actions/16/view-list-compact.svg

<svg width="16" height="16" version="1.1" viewBox="0 0 16 16" xmlns="http://www.w3.org/2000/svg">
  <defs>
    <style type="text/css">.ColorScheme-Text { color:#ebdbb2; } .ColorScheme-Highlight { color:#458588; }</style>
  </defs>
  <path style="fill:currentColor" class="ColorScheme-Text" d="m1.375 4c-0.2077 0-0.375 0.1673-0.375 0.375v1.25c0 0.2077 0.1673 0.375 0.375 0.375h1.25c0.2077 0 0.375-0.1673 0.375-0.375v-1.25c0-0.2077-0.1673-0.375-0.375-0.375zm2.625 0v2h11v-2zm-2.625 3c-0.2077 0-0.375 0.1673-0.375 0.375v1.25c0 0.2077 0.1673 0.375 0.375 0.375h1.25c0.2077 0 0.375-0.1673 0.375-0.375v-1.25c0-0.2077-0.1673-0.375-0.375-0.375zm2.625 0v2h11v-2zm-2.625 3c-0.2077 0-0.375 0.1673-0.375 0.375v1.25c0 0.2077 0.1673 0.375 0.375 0.375h1.25c0.2077 0 0.375-0.1673 0.375-0.375v-1.25c0-0.2077-0.1673-0.375-0.375-0.375zm2.625 0v2h11v-2z"/>
</svg>

<svg width="16" height="16" version="1.1" viewBox="0 0 16 16" xmlns="http://www.w3.org/2000/svg">
  <defs>
    <style type="text/css">.ColorScheme-Text { color:#ebdbb2; } .ColorScheme-Highlight { color:#458588; }</style>
  </defs>
  <path class="ColorScheme-Text" d="M 1.375,4 C 1.1673,4 1,4.1673 1,4.375 v 1.25 C 1,5.8327 1.1673,6 1.375,6 h 1.25 C 2.8327,6 3,5.8327 3,5.625 V 4.375 C 3,4.1673 2.8327,4 2.625,4 Z M 4,4 V 6 H 15 V 4 Z M 1.375,7 C 1.1673,7 1,7.1673 1,7.375 v 1.25 C 1,8.8327 1.1673,9 1.375,9 h 1.25 C 2.8327,9 3,8.8327 3,8.625 V 7.375 C 3,7.1673 2.8327,7 2.625,7 Z M 4,7 V 9 H 15 V 7 Z M 1.375,10 C 1.1673,10 1,10.1673 1,10.375 v 1.25 C 1,11.8327 1.1673,12 1.375,12 h 1.25 C 2.8327,12 3,11.8327 3,11.625 v -1.25 C 3,10.1673 2.8327,10 2.625,10 Z M 4,10 v 2 h 11 v -2 z" fill="currentColor"/>
</svg>
